X: 1346
T: Meclisi Zevk-ı Tarab`dır
C: Ahmet Avni Konuk
O: Turkey
F: http://compmusic.upf.edu/node/140
N: zevkitarab--kupe--musemmen--meclis-i--ahmet_avni_konuk
N: makam= zevkitarab
N: form= kupe
N: usul= musemmen = 8/8
M: 8/8
L: 1/16
K: C _B _7/8e ^f ^c
Q: 1/4=96
%%MIDI tuningsystem comma53
g4 a2a4ab abag  | a=c'b2 abag2bag fed2  | 
w:  Mec li si  Zevk_  |  ı  *  *  Ta *  rab *  *  dır   | 
d4 d2f2 eded cdc2  | fga2 gffe edd4z2  | 
w:  mu si ki  *  *  er  |  bâ *  *  bı *  nın    | 
=c4 c2c2 _e2d2 c2B2  | =c_ed2 c2cB BAG4z2  | \
w:  Dâ im  ol *  sun   |  zev *  *  ki  her  *  *  *  an   | 
G4 A2B2 d2=c2 B4  | 
w:  ehl_ i  dil  *  es  | 
B2A2 G2AB {=c}BAA4z2  | |


